X: 10
T: HUNTSMEN'S CHORUS
S: "Community Dances Manual 6", EFDSS, Jack Hamilton ed., 1981 p.7
R: reel
Z: 2010 John Chambers <jc:trillian.mit.edu>
M: 4/4
L: 1/8
K: G
"A"|: "G"D2 |\
G2D2 GABc | "G"d4 B4 | "D7"A2d2 A2d2 | "G"BcBA G2D2 |\
G2D2 GABc | "G7"d4 "C"c4 | "G"BAGA "D7"B2A2 | "G"G6 :|
"B"|: D2 |\
"G(Bm)"B2BB B2A2 | "Em"G4 G4 | "Am"c2cc c2B2 | "D7"A2F2 E2D2 |\
"G"B2BA GABc | "G7"d4 "C"c4 | "G"BAGA "D7"B2A2 | "G"G6 :|

%%sep 2 1 500
%%sep 1 1 500

